logo/segment-icon.svg

<?xml version="1.0" encoding="UTF-8"?>
<svg width="256px" height="265px" viewBox="0 0 256 265" version="1.1" xmlns="http://www.w3.org/2000/svg" xmlns:xlink="http://www.w3.org/1999/xlink" preserveAspectRatio="xMidYMid">
    <g>
        <path d="M233.559383,141.926599 L233.730919,141.940042 L251.62229,143.810378 C252.878362,143.945722 254.031727,144.558621 254.846877,145.517067 L254.979564,145.679985 L254.809734,145.764536 C255.645772,146.819971 256.014592,148.170607 255.829453,149.504479 C251.920407,180.581499 237.190967,209.288892 214.225781,230.587832 C190.396859,252.688552 159.097527,264.967963 126.596982,264.967963 C110.811924,264.993233 95.1611576,262.087107 80.4408704,256.398937 L79.6388731,256.085915 C78.4340153,255.640672 77.4659746,254.724427 76.9534772,253.553406 L76.8763743,253.366422 C76.3745325,252.200276 76.3466522,250.887846 76.7927339,249.706061 L83.8547817,232.47639 C84.8116898,230.040624 87.5236209,228.813705 89.9727749,229.677267 L90.1356403,229.737944 C126.232536,243.675808 167.116063,235.825646 195.484521,209.509746 C213.541352,192.917988 225.184665,170.503115 228.376481,146.18948 C228.714624,143.678861 230.892709,141.852468 233.388725,141.919108 L233.559383,141.926599 L233.559383,141.926599 Z M43.4790584,206.236792 L43.731265,206.234818 L43.9844146,206.237023 C52.1042361,206.330081 58.6419662,212.895721 58.7302203,220.985764 L58.7308733,221.239069 C58.7308733,221.322891 58.7298903,221.407443 58.7284326,221.491265 C58.5870275,229.775118 51.7580427,236.376688 43.4741905,236.236012 C35.190338,236.094608 28.5894962,229.265622 28.7294433,220.98177 C28.8679626,212.866976 35.4238844,206.3665 43.4790584,206.236792 Z M4.92967673,147.082372 L151.245907,147.082372 C153.934439,147.105211 156.10653,149.258106 156.174142,151.926161 L156.175942,152.097146 L156.175942,170.413462 C156.198243,173.101993 154.081937,175.310424 151.416071,175.423172 L151.245178,175.427507 L4.92967673,175.427507 C2.24043139,175.404668 0.0690245784,173.251074 0,170.583674 L0,170.412733 L0,152.096508 L0,151.925476 C0.0675844901,149.316092 2.14770093,147.199058 4.75508624,147.086865 L4.92967673,147.082372 Z M169.561494,7.31085903 C170.828307,7.76787402 171.855316,8.71834859 172.408544,9.94580195 C172.916582,11.1849176 172.916582,12.5741849 172.408544,13.8125716 L166.034388,30.81178 C165.150971,33.3322871 162.395032,34.6625142 159.872339,33.7863866 C126.477444,22.1328685 89.4220555,28.7541192 62.1301694,51.2520855 C45.1214853,65.4887952 33.0444813,84.7351764 27.622986,106.242579 C27.0617395,108.414676 25.1061235,109.933686 22.8633242,109.940246 L21.7583247,109.940246 L4.24962094,105.733084 C2.94417618,105.426221 1.82314099,104.596013 1.14745853,103.437805 L1.06217822,103.437805 C0.353695638,102.280325 0.153979355,100.881582 0.510407319,99.5710349 C7.46330374,72.0393435 23.0207648,47.4450851 44.9188535,29.3663881 C79.7394601,0.699812731 127.018281,-7.66640438 169.561494,7.31085903 Z M104.754289,80.7452242 L251.06979,80.7452242 C253.692375,80.7666155 255.835743,82.8178629 255.99201,85.4154704 L255.999825,85.5894372 L255.999825,103.905753 C256.022125,106.594998 253.907219,108.803443 251.240726,108.916192 L251.06979,108.920527 L104.754289,108.920527 C102.082669,108.87487 99.9360988,106.729712 99.8683306,104.079305 L99.8664898,103.905753 L99.8664898,85.7592689 C99.8435255,83.0876489 101.932756,80.8873172 104.580813,80.751161 L104.754289,80.7452242 Z M206.325863,24.861606 L206.578049,24.8596325 L206.831176,24.8618385 C214.950998,24.9548961 221.488728,31.5205366 221.576982,39.6098731 L221.577635,39.8631554 C221.577635,39.9477067 221.576652,40.032258 221.575194,40.1160807 C221.434518,48.3999329 214.604804,55.0007747 206.320952,54.8600988 C198.0371,54.7194228 191.436258,47.8897091 191.576934,39.6065855 C191.714739,31.4910772 198.271346,24.9912858 206.325863,24.861606 Z" fill="#4FB58B"></path>
    </g>
</svg>

<svg viewBox="0 0 256 265" xmlns="http://www.w3.org/2000/svg"><path fill="#4FB58B" d="M233.55 141.92l.17.01 17.89 1.87c1.25.13 2.4.74 3.22 1.7l.13.16 -.17.08c.83 1.05 1.2 2.4 1.01 3.73 -3.91 31.07-18.64 59.78-41.61 81.08 -23.83 22.1-55.13 34.38-87.63 34.38 -15.79.02-31.44-2.89-46.16-8.57l-.81-.32c-1.21-.45-2.18-1.37-2.69-2.54l-.08-.19c-.51-1.17-.53-2.48-.09-3.67l7.06-17.23c.95-2.44 3.66-3.67 6.11-2.8l.16.06c36.09 13.93 76.98 6.08 105.34-20.23 18.05-16.6 29.7-39.01 32.89-63.33 .33-2.52 2.51-4.34 5.01-4.28l.17 0v0ZM43.46 206.23l.25-.01 .25 0c8.11.09 14.65 6.65 14.74 14.74l0 .25c0 .08-.01.16-.01.25 -.15 8.28-6.98 14.88-15.26 14.74 -8.29-.15-14.89-6.98-14.75-15.26 .13-8.12 6.69-14.62 14.74-14.75ZM4.91 147.07h146.31c2.68.02 4.86 2.17 4.92 4.84l0 .17v18.31c.02 2.68-2.1 4.89-4.76 5l-.18 0H4.88c-2.69-.03-4.87-2.18-4.93-4.85v-.18 -18.32 -.18c.06-2.61 2.14-4.73 4.75-4.84l.17-.01ZM169.54 7.29c1.26.45 2.29 1.4 2.84 2.63 .5 1.23.5 2.62 0 3.86L166 30.77c-.89 2.52-3.64 3.85-6.17 2.97 -33.4-11.66-70.46-5.04-97.75 17.46 -17.01 14.23-29.09 33.48-34.51 54.99 -.57 2.17-2.52 3.69-4.76 3.69H21.7l-17.51-4.21c-1.31-.31-2.43-1.14-3.11-2.3H.99c-.71-1.16-.91-2.56-.56-3.87 6.95-27.54 22.51-52.13 44.4-70.21C79.65.62 126.92-7.75 169.47 7.23Zm-64.81 73.43h146.31c2.62.02 4.76 2.07 4.92 4.67l0 .17v18.31c.02 2.68-2.1 4.89-4.76 5.01l-.18 0H104.7c-2.68-.05-4.82-2.2-4.89-4.85l-.01-.18V85.7c-.03-2.68 2.06-4.88 4.71-5.01l.17-.01ZM206.3 24.83l.25-.01 .25 0c8.11.09 14.65 6.65 14.74 14.74l0 .25c0 .08-.01.16-.01.25 -.15 8.28-6.98 14.88-15.26 14.74 -8.29-.15-14.89-6.98-14.75-15.26 .13-8.12 6.69-14.62 14.74-14.75Z"/></svg>
